X:1
T:Fado da Ribeira Nova
T:Fado da Ribeira Nova
T:in "Cantos Populares - 12 Fados para Piano"
T:Editor: Eduardo da Fonsaca - Porto [ca. 1900]
%%score { 1 | 2 }
L:1/8
Q:1/4=40
M:2/4
K:G
V:1 treble nm="Piano" snm="Pno."
V:2 bass 
V:1
"^Vagaroso" B | eg b/ag/ | bf z f | ga f/ga/ | (g/f/e) z B | eg b/ag/ | .bf- f>f | ga f/ga/ | %8
 g/f/e !>![Gg]2 | ce g/ec/ | B2 z (^d/e/) | fa g/f^d/ | e z !>![Gg]2 | ce g/ec/ | B2 z ^d/e/ | %15
 fa g/f^d/ | e[Beg] [Be]!D.C.! |] %17
V:2
 z | E,/B,/G,/B,/ E,/B,/G,/B,/ | ^D,/B,/A,/B,/ B,,/B,/A,/B,/ | ^D,/B,/A,/B,/ B,,/B,/A,/B,/ | %4
 E,/B,/G,/B,/ E,/B,/G,/B,/ | E,/B,/G,/B,/ E,/B,/G,/B,/ | ^D,/B,/A,/B,/ B,,/B,/A,/B,/ | %7
 ^D,/B,/A,/B,/ B,,/B,/A,/B,/ | E,/B,/G,/B,/ E,/B,/G,/B,/ | E,/B,/G,/B,/ E,/B,/G,/B,/ | %10
 E,/B,/G,/B,/ E,/B,/G,/B,/ | ^D,/B,/A,/B,/ B,,/B,/A,/B,/ | E,/B,/G,/B,/ E,/B,/G,/B,/ | %13
 E,/B,/G,/B,/ E,/B,/G,/B,/ | E,/B,/G,/B,/ E,/B,/G,/B,/ | ^D,/B,/A,/B,/ B,,/B,/A,/B,/ | %16
 E,/B,/G,/B,/ [E,B,] |] %17

